;FLAVOR:Marlin
;TIME:4298
;Filament used: 2.65789m
;Layer height: 0.2
;Generated with Cura_SteamEngine 3.4.1
M190 S60
M104 S210
M109 S210
M82 ;absolute extrusion mode
G21 ;metric values
G90 ;absolute positioning
M82 ;set extruder to absolute mode
M107 ;start with the fan off
G28 X0 Y0 ;move X/Y to min endstops
G28 Z0 ;move Z to min endstops
G1 Z15.0 F9000 ;move the platform down 15mm
G92 E0 ;zero the extruded length
G1 F200 E3 ;extrude 3mm of feed stock
G92 E0 ;zero the extruded length again
G1 F9000
;Put printing message on LCD screen
M117 Printing...
G92 E0
G1 F1500 E-6.5
;LAYER_COUNT:75
;LAYER:0
M107
G0 F3600 X42.872 Y87.782 Z0.3
;TYPE:SKIRT
G1 F1500 E0
G1 F900 X43.59 Y87.453 E0.0394
G1 X44.337 Y87.198 E0.07878
G1 X45.107 Y87.021 E0.1182
G1 X45.89 Y86.922 E0.15757
G1 X46.474 Y86.9 E0.18673
G1 X125.749 Y86.896 E4.14178
G1 X126.667 Y86.837 E4.18767
G1 X127.333 Y86.708 E4.22152
G1 X127.978 Y86.495 E4.2554
G1 X128.578 Y86.207 E4.28861
G1 X129.149 Y85.838 E4.32253
G1 X129.662 Y85.404 E4.35605
G1 X130.116 Y84.909 E4.38956
G1 X130.508 Y84.352 E4.42354
G1 X130.819 Y83.762 E4.45681
G1 X131.057 Y83.127 E4.49065
G1 X131.21 Y82.475 E4.52406
G1 X131.279 Y81.808 E4.55751
G1 X131.262 Y81.126 E4.59155
G1 X131.16 Y80.459 E4.62521
G1 X130.977 Y79.82 E4.65837
G1 X130.706 Y79.193 E4.69245
G1 X130.366 Y78.62 E4.72569
G1 X129.95 Y78.087 E4.75942
G1 X129.522 Y77.663 E4.78948
G1 X127.765 Y76.373 E4.89823
G1 X126.922 Y75.657 E4.95341
G1 X126.372 Y75.118 E4.99183
G1 X125.836 Y74.537 E5.03126
G1 X125.362 Y73.906 E5.07064
G1 X124.955 Y73.229 E5.11005
G1 X124.618 Y72.515 E5.14944
G1 X124.355 Y71.771 E5.18881
G1 X124.168 Y71.003 E5.22824
G1 X124.06 Y70.221 E5.26763
G1 X124.032 Y69.41 E5.30811
G1 X124.054 Y68.156 E5.37068
G1 X124.108 Y67.368 E5.41009
G1 X124.241 Y66.59 E5.44947
G1 X124.452 Y65.829 E5.48887
G1 X124.739 Y65.093 E5.52828
G1 X125.099 Y64.391 E5.56764
G1 X125.529 Y63.728 E5.60706
G1 X126.023 Y63.112 E5.64646
G1 X126.576 Y62.549 E5.68583
G1 X127.184 Y62.045 E5.72523
G1 X127.84 Y61.605 E5.76464
G1 X128.537 Y61.233 E5.80405
G1 X129.268 Y60.934 E5.84345
G1 X130.044 Y60.706 E5.88381
G1 X130.304 Y60.644 E5.89714
G1 X131.08 Y60.5 E5.93652
G1 X131.867 Y60.435 E5.97591
G1 X132.657 Y60.45 E6.01533
G1 X133.075 Y60.491 E6.03629
G1 X133.421 Y60.534 E6.05368
G1 X134.199 Y60.67 E6.09309
G1 X134.959 Y60.885 E6.13249
G1 X135.383 Y61.043 E6.15507
G1 X136.199 Y61.373 E6.19898
G1 X136.915 Y61.706 E6.23837
G1 X137.551 Y62.081 E6.27521
G1 X139.383 Y63.282 E6.3845
G1 X140.219 Y63.913 E6.43675
G1 X141.503 Y65.027 E6.52156
G1 X142.137 Y65.645 E6.56573
G1 X143.288 Y66.899 E6.65065
G1 X143.856 Y67.593 E6.6954
G1 X144.852 Y68.966 E6.78002
G1 X145.332 Y69.715 E6.8244
G1 X146.167 Y71.196 E6.90922
G1 X146.558 Y71.992 E6.95347
G1 X147.219 Y73.557 E7.03823
G1 X147.518 Y74.396 E7.08266
G1 X147.996 Y76.025 E7.16736
G1 X148.198 Y76.891 E7.21172
G1 X148.488 Y78.567 E7.29658
G1 X148.588 Y79.437 E7.34027
G1 X148.754 Y82.244 E7.48056
G1 X148.872 Y82.878 E7.51273
G1 X149.069 Y83.501 E7.54533
G1 X149.336 Y84.084 E7.57732
G1 X149.68 Y84.643 E7.61007
G1 X150.077 Y85.138 E7.64173
G1 X150.539 Y85.589 E7.67394
G1 X152.79 Y87.285 E7.81455
G1 X153.396 Y87.791 E7.85394
G1 X153.948 Y88.356 E7.89334
G1 X154.439 Y88.974 E7.93272
G1 X154.866 Y89.639 E7.97215
G1 X155.275 Y90.463 E8.01804
G1 X155.363 Y90.67 E8.02927
G1 X155.635 Y91.412 E8.06869
G1 X155.83 Y92.177 E8.10808
G1 X155.947 Y92.958 E8.14748
G1 X155.983 Y93.887 E8.19386
G1 X155.921 Y96.811 E8.33977
G1 X155.865 Y97.599 E8.37919
G1 X155.729 Y98.377 E8.41859
G1 X155.515 Y99.137 E8.45798
G1 X155.225 Y99.872 E8.4974
G1 X154.862 Y100.573 E8.53679
G1 X154.431 Y101.234 E8.57615
G1 X153.934 Y101.849 E8.6156
G1 X153.379 Y102.41 E8.65497
G1 X152.769 Y102.911 E8.69435
G1 X152.111 Y103.349 E8.73379
G1 X151.413 Y103.718 E8.77318
G1 X150.681 Y104.015 E8.81259
G1 X149.923 Y104.235 E8.85197
G1 X149.147 Y104.379 E8.89134
G1 X148.123 Y104.446 E8.94254
G1 X126 Y104.446 E10.04626
G1 X125.211 Y104.406 E10.08568
G1 X125.145 Y104.396 E10.08901
G1 X55.3 Y104.396 E13.57359
G1 X55.3 Y126.701 E14.68639
G1 X55.425 Y126.819 E14.69496
G1 X55.94 Y127.418 E14.73438
G1 X56.391 Y128.066 E14.77376
G1 X56.775 Y128.757 E14.8132
G1 X57.087 Y129.482 E14.85258
G1 X57.324 Y130.235 E14.89197
G1 X57.483 Y131.009 E14.93139
G1 X57.564 Y131.794 E14.97076
G1 X57.567 Y132.523 E15.00713
G1 X57.534 Y133.31 E15.04643
G1 X57.461 Y134.096 E15.08581
G1 X57.309 Y134.871 E15.12521
G1 X57.079 Y135.627 E15.16463
G1 X56.774 Y136.355 E15.20401
G1 X56.397 Y137.049 E15.24342
G1 X55.952 Y137.701 E15.2828
G1 X55.443 Y138.305 E15.32221
G1 X54.876 Y138.854 E15.36158
G1 X54.256 Y139.343 E15.40098
G1 X53.344 Y139.901 E15.45432
G1 X52.862 Y140.152 E15.48143
G1 X52.144 Y140.481 E15.52083
G1 X51.396 Y140.736 E15.56026
G1 X50.627 Y140.913 E15.59963
G1 X49.843 Y141.012 E15.63905
G1 X49.399 Y141.033 E15.66123
G1 X46.554 Y141.084 E15.80319
G1 X45.765 Y141.058 E15.84257
G1 X44.982 Y140.952 E15.88199
G1 X44.214 Y140.768 E15.92139
G1 X43.469 Y140.508 E15.96076
G1 X43.028 Y140.312 E15.98484
G1 X42.862 Y140.232 E15.99403
G1 X42.169 Y139.853 E16.03344
G1 X41.517 Y139.407 E16.07285
G1 X40.914 Y138.897 E16.11225
G1 X40.366 Y138.328 E16.15166
G1 X39.718 Y137.472 E16.20522
G1 X39.586 Y137.27 E16.21726
G1 X39.189 Y136.588 E16.25663
G1 X38.862 Y135.869 E16.29604
G1 X38.609 Y135.121 E16.33543
G1 X38.433 Y134.351 E16.37484
G1 X38.336 Y133.567 E16.41425
G1 X38.316 Y133.006 E16.44226
G1 X38.303 Y95.089 E18.33394
G1 X38.343 Y94.3 E18.37336
G1 X38.462 Y93.519 E18.41277
G1 X38.729 Y92.544 E18.46321
G1 X38.81 Y92.309 E18.47561
G1 X39.105 Y91.577 E18.51498
G1 X39.472 Y90.878 E18.55437
G1 X39.908 Y90.219 E18.59379
G1 X40.409 Y89.608 E18.63321
G1 X40.968 Y89.051 E18.67258
G1 X41.581 Y88.554 E18.71195
G1 X42.582 Y87.933 E18.77072
G1 X42.872 Y87.782 E18.78703
G0 F3600 X43.056 Y88.136
G1 F900 X43.756 Y87.817 E18.82541
G1 X44.485 Y87.572 E18.86378
G1 X45.236 Y87.404 E18.90218
G1 X46 Y87.315 E18.94055
G1 X46.474 Y87.3 E18.96421
G1 X125.759 Y87.296 E22.91975
G1 X126.723 Y87.234 E22.96795
G1 X127.434 Y87.096 E23.00408
G1 X128.125 Y86.868 E23.04038
G1 X128.775 Y86.557 E23.07633
G1 X129.385 Y86.162 E23.11259
G1 X129.942 Y85.69 E23.14901
G1 X130.427 Y85.16 E23.18486
G1 X130.846 Y84.566 E23.22112
G1 X131.186 Y83.921 E23.2575
G1 X131.44 Y83.243 E23.29362
G1 X131.606 Y82.538 E23.32975
G1 X131.68 Y81.823 E23.36561
G1 X131.662 Y81.095 E23.40195
G1 X131.551 Y80.374 E23.43834
G1 X131.35 Y79.674 E23.47468
G1 X131.067 Y79.017 E23.51036
G1 X130.698 Y78.396 E23.5464
G1 X130.247 Y77.818 E23.58298
G1 X129.787 Y77.362 E23.61529
G1 X128.001 Y76.051 E23.72583
G1 X127.202 Y75.371 E23.77817
G1 X126.652 Y74.832 E23.81659
G1 X126.131 Y74.266 E23.85497
G1 X125.672 Y73.649 E23.89334
G1 X125.279 Y72.987 E23.93174
G1 X124.958 Y72.289 E23.97007
G1 X124.71 Y71.56 E24.00849
G1 X124.54 Y70.81 E24.04686
G1 X124.448 Y70.047 E24.0852
G1 X124.432 Y69.417 E24.11664
G1 X124.454 Y68.163 E24.17921
G1 X124.508 Y67.396 E24.21757
G1 X124.64 Y66.638 E24.25596
G1 X124.851 Y65.899 E24.2943
G1 X125.137 Y65.185 E24.33267
G1 X125.496 Y64.504 E24.37108
G1 X125.924 Y63.865 E24.40945
G1 X126.416 Y63.274 E24.44782
G1 X126.966 Y62.736 E24.4862
G1 X127.569 Y62.259 E24.52456
G1 X128.219 Y61.847 E24.56295
G1 X128.907 Y61.505 E24.60129
G1 X129.628 Y61.235 E24.6397
G1 X130.137 Y61.095 E24.66603
G1 X130.397 Y61.033 E24.67937
G1 X131.153 Y60.894 E24.71772
G1 X131.92 Y60.834 E24.7561
G1 X133.026 Y60.887 E24.81134
G1 X133.372 Y60.93 E24.82874
G1 X134.129 Y61.065 E24.8671
G1 X134.868 Y61.277 E24.90545
G1 X135.233 Y61.414 E24.92491
G1 X136.049 Y61.744 E24.96882
G1 X136.746 Y62.069 E25.00719
G1 X137.332 Y62.415 E25.04114
G1 X139.164 Y63.616 E25.15043
G1 X139.956 Y64.215 E25.19997
G1 X141.24 Y65.329 E25.28478
G1 X141.843 Y65.915 E25.32673
G1 X142.994 Y67.169 E25.41165
G1 X143.532 Y67.828 E25.45409
G1 X144.528 Y69.201 E25.53871
G1 X144.984 Y69.912 E25.58085
G1 X145.819 Y71.393 E25.66568
G1 X146.19 Y72.148 E25.70764
G1 X146.851 Y73.713 E25.7924
G1 X147.135 Y74.508 E25.83452
G1 X147.613 Y76.137 E25.91922
G1 X147.804 Y76.959 E25.96132
G1 X148.094 Y78.635 E26.04618
G1 X148.189 Y79.46 E26.08761
G1 X148.356 Y82.291 E26.22909
G1 X148.485 Y82.984 E26.26426
G1 X148.693 Y83.641 E26.29864
G1 X148.984 Y84.276 E26.33349
G1 X149.35 Y84.869 E26.36826
G1 X149.786 Y85.414 E26.40308
G1 X150.271 Y85.888 E26.43691
G1 X152.549 Y87.604 E26.5792
G1 X153.139 Y88.098 E26.61759
G1 X153.674 Y88.651 E26.65598
G1 X154.149 Y89.256 E26.69435
G1 X154.558 Y89.907 E26.73271
G1 X154.907 Y90.62 E26.77231
G1 X154.995 Y90.827 E26.78353
G1 X155.259 Y91.549 E26.82189
G1 X155.446 Y92.295 E26.86026
G1 X155.555 Y93.057 E26.89866
G1 X155.583 Y93.879 E26.93969
G1 X155.521 Y96.803 E27.08561
G1 X155.465 Y97.57 E27.12397
G1 X155.33 Y98.327 E27.16234
G1 X155.116 Y99.066 E27.20072
G1 X154.827 Y99.779 E27.2391
G1 X154.466 Y100.458 E27.27747
G1 X154.036 Y101.096 E27.31585
G1 X153.542 Y101.685 E27.3542
G1 X152.99 Y102.221 E27.39259
G1 X152.385 Y102.696 E27.43097
G1 X151.734 Y103.105 E27.46932
G1 X151.044 Y103.445 E27.5077
G1 X150.322 Y103.712 E27.5461
G1 X149.577 Y103.902 E27.58446
G1 X148.816 Y104.013 E27.62283
G1 X148.123 Y104.046 E27.65744
G1 X126 Y104.046 E28.76116
G1 X125.232 Y104.006 E28.79953
G1 X125.168 Y103.996 E28.80276
G1 X54.9 Y103.996 E32.30845
G1 X54.9 Y126.872 E33.44974
G1 X55.244 Y127.212 E33.47387
G1 X55.732 Y127.807 E33.51226
G1 X56.155 Y128.449 E33.55062
G1 X56.51 Y129.132 E33.58902
G1 X56.791 Y129.847 E33.62735
G1 X56.997 Y130.589 E33.66576
G1 X57.125 Y131.347 E33.70412
G1 X57.174 Y132.115 E33.74251
G1 X57.168 Y132.506 E33.76202
G1 X57.135 Y133.293 E33.80132
G1 X57.062 Y134.059 E33.83971
G1 X56.911 Y134.813 E33.87807
G1 X56.682 Y135.547 E33.91643
G1 X56.379 Y136.254 E33.95481
G1 X56.003 Y136.925 E33.99318
G1 X55.56 Y137.554 E34.03156
G1 X55.054 Y138.133 E34.06993
G1 X54.491 Y138.657 E34.1083
G1 X53.877 Y139.12 E34.14666
G1 X53.159 Y139.546 E34.18831
G1 X52.677 Y139.797 E34.21543
G1 X51.977 Y140.117 E34.25383
G1 X51.248 Y140.362 E34.2922
G1 X50.497 Y140.53 E34.33059
G1 X49.392 Y140.633 E34.38596
G1 X46.547 Y140.684 E34.52792
G1 X45.778 Y140.658 E34.5663
G1 X45.016 Y140.552 E34.60469
G1 X44.269 Y140.367 E34.64308
G1 X43.201 Y139.951 E34.70026
G1 X43.035 Y139.871 E34.70946
G1 X42.361 Y139.502 E34.74779
G1 X41.728 Y139.064 E34.7862
G1 X41.144 Y138.563 E34.82458
G1 X40.616 Y138.005 E34.86291
G1 X40.053 Y137.253 E34.90978
G1 X39.921 Y137.051 E34.92182
G1 X39.535 Y136.386 E34.96018
G1 X39.219 Y135.685 E34.99854
G1 X38.978 Y134.954 E35.03694
G1 X38.814 Y134.203 E35.07529
G1 X38.729 Y133.438 E35.11369
G1 X38.716 Y133.006 E35.13525
G1 X38.703 Y95.089 E37.02694
G1 X38.743 Y94.32 E37.06536
G1 X38.862 Y93.561 E37.10369
G1 X39.107 Y92.675 E37.14955
G1 X39.188 Y92.44 E37.16195
G1 X39.476 Y91.726 E37.20036
G1 X39.837 Y91.047 E37.23872
G1 X40.266 Y90.409 E37.27708
G1 X40.759 Y89.818 E37.31548
G1 X41.31 Y89.282 E37.35383
G1 X41.915 Y88.807 E37.3922
G1 X42.766 Y88.287 E37.44196
G1 X43.056 Y88.136 E37.45827
G0 F3600 X43.241 Y88.491
G1 F900 X43.922 Y88.182 E37.49558
G1 X44.632 Y87.947 E37.53289
G1 X45.364 Y87.789 E37.57025
G1 X46.474 Y87.7 E37.62581
G1 X125.769 Y87.696 E41.58185
G1 X126.77 Y87.632 E41.63189
G1 X127.54 Y87.482 E41.67103
G1 X128.27 Y87.242 E41.70937
G1 X128.978 Y86.902 E41.74855
G1 X129.622 Y86.485 E41.78683
G1 X130.218 Y85.981 E41.82577
G1 X130.739 Y85.412 E41.86426
G1 X131.19 Y84.771 E41.90336
G1 X131.552 Y84.086 E41.94202
G1 X131.825 Y83.358 E41.98081
G1 X132.001 Y82.608 E42.01924
G1 X132.08 Y81.839 E42.05781
G1 X132.061 Y81.055 E42.09693
G1 X131.943 Y80.288 E42.13565
G1 X131.731 Y79.548 E42.17405
G1 X131.422 Y78.833 E42.21291
G1 X131.03 Y78.171 E42.2513
G1 X130.547 Y77.553 E42.29043
G1 X130.042 Y77.053 E42.32588
G1 X128.238 Y75.728 E42.43755
G1 X127.481 Y75.085 E42.48711
G1 X126.931 Y74.546 E42.52552
G1 X126.426 Y73.995 E42.56281
G1 X125.982 Y73.393 E42.60013
G1 X125.605 Y72.747 E42.63745
G1 X125.299 Y72.064 E42.67479
G1 X125.068 Y71.353 E42.71208
G1 X124.914 Y70.621 E42.7494
G1 X124.839 Y69.876 E42.78676
G1 X124.832 Y69.424 E42.80931
G1 X124.854 Y68.17 E42.87188
G1 X124.907 Y67.424 E42.9092
G1 X125.04 Y66.688 E42.94651
G1 X125.25 Y65.97 E42.98383
G1 X125.535 Y65.278 E43.02117
G1 X125.893 Y64.621 E43.0585
G1 X126.319 Y64.006 E43.09582
G1 X126.808 Y63.44 E43.13314
G1 X127.355 Y62.93 E43.17045
G1 X127.953 Y62.48 E43.20779
G1 X128.595 Y62.097 E43.24508
G1 X129.275 Y61.785 E43.28241
G1 X130.229 Y61.484 E43.33232
G1 X130.489 Y61.422 E43.34565
G1 X131.225 Y61.288 E43.38298
G1 X131.971 Y61.232 E43.4203
G1 X132.976 Y61.284 E43.47051
G1 X133.322 Y61.327 E43.4879
G1 X134.059 Y61.459 E43.52525
G1 X135.083 Y61.785 E43.57887
G1 X135.899 Y62.115 E43.62278
G1 X136.577 Y62.432 E43.66012
G1 X137.113 Y62.75 E43.69122
G1 X138.945 Y63.951 E43.8005
G1 X139.694 Y64.518 E43.84737
G1 X140.978 Y65.632 E43.93218
G1 X141.548 Y66.186 E43.97184
G1 X142.699 Y67.44 E44.05676
G1 X143.208 Y68.063 E44.09689
G1 X144.204 Y69.436 E44.18152
G1 X144.636 Y70.108 E44.22137
G1 X145.471 Y71.589 E44.3062
G1 X145.821 Y72.303 E44.34587
G1 X146.482 Y73.868 E44.43062
G1 X146.751 Y74.621 E44.47052
G1 X147.229 Y76.25 E44.55521
G1 X147.41 Y77.028 E44.59506
G1 X147.7 Y78.704 E44.67992
G1 X147.79 Y79.484 E44.7191
G1 X147.959 Y82.343 E44.86198
G1 X148.096 Y83.08 E44.89938
G1 X148.321 Y83.79 E44.93654
G1 X148.626 Y84.455 E44.97304
G1 X149.026 Y85.104 E45.01107
G1 X149.488 Y85.681 E45.04795
G1 X150.013 Y86.194 E45.08457
G1 X152.309 Y87.924 E45.228
G1 X152.881 Y88.405 E45.26528
G1 X153.399 Y88.945 E45.30261
G1 X153.857 Y89.537 E45.33995
G1 X154.248 Y90.174 E45.37724
G1 X154.539 Y90.776 E45.4106
G1 X154.627 Y90.983 E45.42182
G1 X154.883 Y91.686 E45.45915
G1 X155.061 Y92.413 E45.49649
G1 X155.162 Y93.154 E45.5338
G1 X155.183 Y93.87 E45.56954
G1 X155.121 Y96.794 E45.71545
G1 X155.066 Y97.54 E45.75277
G1 X154.931 Y98.276 E45.7901
G1 X154.718 Y98.993 E45.82742
G1 X154.43 Y99.684 E45.86477
G1 X154.069 Y100.339 E45.90208
G1 X153.641 Y100.953 E45.93942
G1 X153.15 Y101.517 E45.97673
G1 X152.602 Y102.026 E46.01404
G1 X152.002 Y102.473 E46.05137
G1 X151.358 Y102.854 E46.0887
G1 X150.677 Y103.163 E46.12601
G1 X149.967 Y103.399 E46.16334
G1 X149.236 Y103.557 E46.20065
G1 X148.123 Y103.646 E46.25635
G1 X126 Y103.646 E47.36007
G1 X125.253 Y103.606 E47.3974
G1 X125.191 Y103.596 E47.40053
G1 X54.5 Y103.596 E50.92732
G1 X54.5 Y127.036 E52.09674
G1 X54.537 Y127.067 E52.09915
G1 X55.058 Y127.604 E52.13648
G1 X55.517 Y128.194 E52.17377
G1 X55.912 Y128.83 E52.21113
G1 X56.236 Y129.504 E52.24843
G1 X56.486 Y130.209 E52.28575
G1 X56.66 Y130.937 E52.3231
G1 X56.755 Y131.679 E52.36042
G1 X56.768 Y132.489 E52.40083
G1 X56.735 Y133.276 E52.44013
G1 X56.664 Y134.021 E52.47747
G1 X56.513 Y134.754 E52.51481
G1 X56.286 Y135.466 E52.55209
G1 X55.983 Y136.151 E52.58946
G1 X55.61 Y136.799 E52.62676
G1 X55.169 Y137.403 E52.66407
G1 X54.666 Y137.957 E52.7014
G1 X54.107 Y138.454 E52.73872
G1 X53.499 Y138.889 E52.77602
G1 X52.974 Y139.192 E52.80626
G1 X52.492 Y139.443 E52.83337
G1 X51.811 Y139.752 E52.87068
G1 X51.101 Y139.987 E52.90799
G1 X50.37 Y140.145 E52.9453
G1 X49.384 Y140.233 E52.99469
G1 X46.539 Y140.284 E53.13665
G1 X45.792 Y140.257 E53.17394
G1 X45.051 Y140.151 E53.21129
G1 X44.326 Y139.966 E53.24862
G1 X43.375 Y139.591 E53.29962
G1 X43.209 Y139.511 E53.30881
G1 X42.553 Y139.151 E53.34615
G1 X41.94 Y138.722 E53.38347
G1 X41.376 Y138.231 E53.42078
G1 X40.867 Y137.683 E53.45809
G1 X40.388 Y137.034 E53.49834
G1 X40.256 Y136.832 E53.51038
G1 X39.881 Y136.185 E53.54768
G1 X39.577 Y135.501 E53.58503
G1 X39.348 Y134.789 E53.62234
G1 X39.196 Y134.057 E53.65964
G1 X39.116 Y133.005 E53.71228
G1 X39.103 Y95.088 E55.60396
G1 X39.143 Y94.341 E55.64129
G1 X39.262 Y93.603 E55.67858
G1 X39.485 Y92.805 E55.71992
G1 X39.566 Y92.57 E55.73232
G1 X39.847 Y91.877 E55.76963
G1 X40.201 Y91.218 E55.80695
G1 X40.623 Y90.6 E55.84428
G1 X41.108 Y90.031 E55.88158
G1 X41.652 Y89.516 E55.91896
G1 X42.247 Y89.063 E55.95626
G1 X42.951 Y88.642 E55.99719
G1 X43.241 Y88.491 E56.0135
G0 F3600 X43.426 Y88.846
G1 F900 X44.088 Y88.547 E56.04974
G1 X44.778 Y88.322 E56.08595
G1 X45.489 Y88.174 E56.12218
G1 X46.474 Y88.1 E56.17146
