;FLAVOR:Marlin
;TIME:1490
;Filament used: 0.464508m
;Layer height: 0.2
;Generated with Cura_SteamEngine 3.5.1
M140 S80
M105
M190 S80
M104 S245
M105
M109 S245
M82 ;absolute extrusion mode
G21 ;metric values
G90 ;absolute positioning
M82 ;set extruder to absolute mode
M107 ;start with the fan off
G28 X0 Y0 ;move X/Y to min endstops
G28 Z0 ;move Z to min endstops
G1 Z15.0 F9000 ;move the platform down 15mm
G92 E0 ;zero the extruded length
G1 F200 E3 ;extrude 3mm of feed stock
G92 E0 ;zero the extruded length again
G1 F9000
;Put printing message on LCD screen
M117 Printing...
G92 E0
G1 F1800 E-1
;LAYER_COUNT:2
;LAYER:0
M107
G0 F2400 X16.902 Y30.956 Z0.2
;TYPE:SKIRT
G1 F1800 E0
G1 F600 X17.426 Y30.763 E0.01839
G1 X17.972 Y30.646 E0.03677
G1 X18.509 Y30.609 E0.0545
G1 X41.494 Y30.61 E0.81134
G1 X42.309 Y30.696 E0.83832
G1 X47.386 Y31.78 E1.00926
G1 X52.761 Y32.625 E1.18842
G1 X58.182 Y33.165 E1.36781
G1 X63.586 Y33.397 E1.54591
G1 X69.049 Y33.32 E1.72581
G1 X74.444 Y32.941 E1.90389
G1 X79.85 Y32.25 E2.08335
G1 X85.237 Y31.25 E2.26376
G1 X87.65 Y30.705 E2.34521
G1 X88.202 Y30.621 E2.3636
G1 X88.51 Y30.609 E2.37375
G1 X111.494 Y30.61 E3.13056
G1 X112.309 Y30.696 E3.15754
G1 X117.386 Y31.78 E3.32848
G1 X122.761 Y32.625 E3.50764
G1 X128.182 Y33.165 E3.68702
G1 X133.586 Y33.397 E3.86513
G1 X139.049 Y33.32 E4.04503
G1 X144.444 Y32.941 E4.22311
G1 X149.85 Y32.25 E4.40257
G1 X155.237 Y31.25 E4.58298
G1 X157.65 Y30.705 E4.66443
G1 X158.202 Y30.621 E4.68282
G1 X158.51 Y30.609 E4.69297
G1 X181.491 Y30.609 E5.44967
G1 X182.048 Y30.649 E5.46806
G1 X182.593 Y30.768 E5.48643
G1 X183.116 Y30.964 E5.50482
G1 X183.605 Y31.232 E5.52318
G1 X184.052 Y31.567 E5.54158
G1 X184.445 Y31.963 E5.55995
G1 X184.779 Y32.411 E5.57835
G1 X185.044 Y32.902 E5.59672
G1 X185.237 Y33.426 E5.61511
G1 X185.354 Y33.972 E5.63349
G1 X185.391 Y34.509 E5.65122
G1 X185.389 Y57.511 E6.40862
G1 X185.35 Y58.062 E6.4268
G1 X184.971 Y60.719 E6.51518
G1 X184.429 Y66.167 E6.69545
G1 X184.197 Y71.573 E6.87362
G1 X184.274 Y77.034 E7.05346
G1 X184.655 Y82.443 E7.232
G1 X185.372 Y88.361 E7.42829
G1 X185.4 Y88.833 E7.44386
G1 X185.383 Y111.558 E8.19214
G1 X185.351 Y112.05 E8.20838
G1 X184.66 Y117.444 E8.38744
G1 X184.276 Y122.859 E8.56619
G1 X184.198 Y128.305 E8.74553
G1 X184.426 Y133.734 E8.92445
G1 X184.965 Y139.172 E9.10439
G1 X185.353 Y141.961 E9.19711
G1 X185.39 Y142.499 E9.21487
G1 X185.391 Y165.491 E9.97194
G1 X185.351 Y166.048 E9.99032
G1 X185.232 Y166.593 E10.00869
G1 X185.036 Y167.116 E10.02708
G1 X184.768 Y167.605 E10.04544
G1 X184.433 Y168.052 E10.06384
G1 X184.037 Y168.445 E10.08221
G1 X183.589 Y168.778 E10.10059
G1 X183.098 Y169.044 E10.11898
G1 X182.575 Y169.237 E10.13733
G1 X182.029 Y169.354 E10.15572
G1 X181.491 Y169.391 E10.17347
G1 X158.506 Y169.39 E10.93031
G1 X157.691 Y169.304 E10.9573
G1 X152.614 Y168.22 E11.12824
G1 X147.239 Y167.375 E11.3074
G1 X141.818 Y166.835 E11.48678
G1 X136.414 Y166.603 E11.66489
G1 X130.951 Y166.68 E11.84479
G1 X125.556 Y167.059 E12.02287
G1 X120.15 Y167.75 E12.20232
G1 X114.763 Y168.75 E12.38274
G1 X112.35 Y169.295 E12.46419
G1 X111.798 Y169.379 E12.48258
G1 X111.49 Y169.391 E12.49273
G1 X88.506 Y169.39 E13.24953
G1 X87.691 Y169.304 E13.27652
G1 X82.614 Y168.22 E13.44746
G1 X77.239 Y167.375 E13.62662
G1 X71.818 Y166.835 E13.806
G1 X66.414 Y166.603 E13.98411
G1 X60.951 Y166.68 E14.16401
G1 X55.556 Y167.059 E14.34209
G1 X50.15 Y167.75 E14.52154
G1 X44.763 Y168.75 E14.70195
G1 X42.35 Y169.295 E14.78341
G1 X41.798 Y169.379 E14.80179
G1 X41.49 Y169.391 E14.81194
G1 X18.509 Y169.391 E15.56865
G1 X17.952 Y169.351 E15.58704
G1 X17.407 Y169.232 E15.60541
G1 X16.884 Y169.036 E15.6238
G1 X16.395 Y168.768 E15.64216
G1 X15.948 Y168.433 E15.66055
G1 X15.555 Y168.037 E15.67892
G1 X15.221 Y167.589 E15.69732
G1 X14.956 Y167.098 E15.7157
G1 X14.763 Y166.574 E15.73408
G1 X14.646 Y166.028 E15.75247
G1 X14.609 Y165.491 E15.77019
G1 X14.611 Y142.489 E16.52759
G1 X14.65 Y141.938 E16.54578
G1 X15.029 Y139.281 E16.63415
G1 X15.571 Y133.833 E16.81443
G1 X15.803 Y128.416 E16.99296
G1 X15.726 Y122.966 E17.17243
G1 X15.345 Y117.556 E17.35101
G1 X14.64 Y111.978 E17.53614
G1 X14.609 Y111.489 E17.55228
G1 X14.611 Y88.489 E18.30961
G1 X14.65 Y87.938 E18.3278
G1 X15.029 Y85.281 E18.41617
G1 X15.571 Y79.833 E18.59645
G1 X15.803 Y74.427 E18.77462
G1 X15.726 Y68.966 E18.95445
G1 X15.345 Y63.556 E19.13303
G1 X14.64 Y57.978 E19.31816
G1 X14.609 Y57.489 E19.3343
G1 X14.609 Y34.509 E20.09097
G1 X14.649 Y33.952 E20.10936
G1 X14.768 Y33.407 E20.12773
G1 X14.964 Y32.884 E20.14612
G1 X15.232 Y32.395 E20.16448
G1 X15.567 Y31.948 E20.18287
G1 X15.963 Y31.555 E20.20124
G1 X16.411 Y31.221 E20.21964
G1 X16.902 Y30.956 E20.23802
G0 F2400 X17.236 Y31.206
G1 F600 X17.745 Y31.052 E20.25553
G1 X18.509 Y30.969 E20.28083
G1 X41.494 Y30.97 E21.03767
G1 X42.233 Y31.048 E21.06214
G1 X47.325 Y32.136 E21.23359
G1 X52.705 Y32.981 E21.41291
G1 X58.148 Y33.523 E21.59302
G1 X63.593 Y33.757 E21.77248
G1 X69.062 Y33.68 E21.95258
G1 X74.495 Y33.298 E22.13192
G1 X79.89 Y32.609 E22.311
G1 X85.312 Y31.602 E22.49259
G1 X87.73 Y31.056 E22.57421
G1 X88.51 Y30.969 E22.60005
G1 X111.494 Y30.97 E23.35686
G1 X112.233 Y31.048 E23.38133
G1 X117.325 Y32.136 E23.55278
G1 X122.705 Y32.981 E23.7321
G1 X128.148 Y33.523 E23.91221
G1 X133.593 Y33.757 E24.09167
G1 X139.062 Y33.68 E24.27177
G1 X144.495 Y33.298 E24.45111
G1 X149.89 Y32.609 E24.63019
G1 X155.312 Y31.602 E24.81178
G1 X157.73 Y31.056 E24.8934
G1 X158.51 Y30.969 E24.91924
G1 X181.491 Y30.969 E25.67595
G1 X182.021 Y31.009 E25.69345
G1 X182.54 Y31.128 E25.71099
G1 X183.034 Y31.323 E25.72847
G1 X183.494 Y31.59 E25.74599
G1 X183.909 Y31.923 E25.76351
G1 X184.269 Y32.315 E25.78103
G1 X184.566 Y32.755 E25.79851
G1 X184.794 Y33.236 E25.81604
G1 X184.948 Y33.745 E25.83355
G1 X185.031 Y34.509 E25.85885
G1 X185.029 Y57.511 E26.61625
G1 X184.993 Y58.011 E26.63276
G1 X184.615 Y60.657 E26.72077
G1 X184.071 Y66.133 E26.90197
G1 X183.837 Y71.58 E27.08149
G1 X183.914 Y77.047 E27.26152
G1 X184.298 Y82.491 E27.44123
G1 X185.014 Y88.404 E27.63735
G1 X185.04 Y88.833 E27.6515
G1 X185.023 Y111.558 E28.39978
G1 X184.994 Y112.005 E28.41453
G1 X184.302 Y117.409 E28.59392
G1 X183.916 Y122.847 E28.77343
G1 X183.837 Y128.315 E28.9535
G1 X184.067 Y133.758 E29.13288
G1 X184.609 Y139.231 E29.31398
G1 X184.996 Y142.011 E29.4064
G1 X185.03 Y142.499 E29.42251
G1 X185.031 Y165.491 E30.17958
G1 X184.991 Y166.021 E30.19708
G1 X184.872 Y166.539 E30.21458
G1 X184.677 Y167.034 E30.2321
G1 X184.41 Y167.494 E30.24961
G1 X184.077 Y167.909 E30.26713
G1 X183.686 Y168.269 E30.28463
G1 X183.245 Y168.566 E30.30214
G1 X182.764 Y168.794 E30.31967
G1 X182.255 Y168.948 E30.33718
G1 X181.491 Y169.031 E30.36248
G1 X158.506 Y169.03 E31.11932
G1 X157.767 Y168.952 E31.14379
G1 X152.675 Y167.864 E31.31524
G1 X147.295 Y167.019 E31.49456
G1 X141.852 Y166.477 E31.67467
G1 X136.407 Y166.243 E31.85413
G1 X130.938 Y166.32 E32.03423
G1 X125.505 Y166.702 E32.21356
G1 X120.11 Y167.391 E32.39265
G1 X114.688 Y168.398 E32.57424
G1 X112.27 Y168.944 E32.65586
G1 X111.49 Y169.031 E32.6817
G1 X88.506 Y169.03 E33.43851
G1 X87.767 Y168.952 E33.46298
G1 X82.675 Y167.864 E33.63443
G1 X77.295 Y167.019 E33.81375
G1 X71.852 Y166.477 E33.99386
G1 X66.407 Y166.243 E34.17332
G1 X60.938 Y166.32 E34.35342
G1 X55.505 Y166.702 E34.53275
G1 X50.11 Y167.391 E34.71184
G1 X44.688 Y168.398 E34.89343
G1 X42.27 Y168.944 E34.97505
G1 X41.49 Y169.031 E35.00089
G1 X18.509 Y169.031 E35.7576
G1 X17.979 Y168.991 E35.7751
G1 X17.46 Y168.872 E35.79264
G1 X16.966 Y168.677 E35.81012
G1 X16.506 Y168.41 E35.82764
G1 X16.091 Y168.077 E35.84516
G1 X15.731 Y167.685 E35.86268
G1 X15.434 Y167.245 E35.88016
G1 X15.206 Y166.764 E35.89769
G1 X15.052 Y166.255 E35.9152
G1 X14.969 Y165.491 E35.9405
G1 X14.971 Y142.489 E36.6979
G1 X15.007 Y141.989 E36.71441
G1 X15.385 Y139.343 E36.80242
G1 X15.93 Y133.86 E36.98385
G1 X16.163 Y128.411 E37.16344
G1 X16.086 Y122.953 E37.34317
G1 X15.702 Y117.512 E37.52278
G1 X14.997 Y111.933 E37.70794
G1 X14.969 Y111.489 E37.72259
G1 X14.971 Y88.489 E38.47992
G1 X15.007 Y87.989 E38.49643
G1 X15.385 Y85.343 E38.58444
G1 X15.929 Y79.867 E38.76564
G1 X16.163 Y74.42 E38.94516
G1 X16.086 Y68.953 E39.12519
G1 X15.703 Y63.522 E39.30447
G1 X14.997 Y57.933 E39.48996
G1 X14.969 Y57.489 E39.50461
G1 X14.969 Y34.509 E40.26129
G1 X15.009 Y33.979 E40.27879
G1 X15.128 Y33.46 E40.29632
G1 X15.323 Y32.966 E40.31381
G1 X15.59 Y32.506 E40.33132
G1 X15.923 Y32.091 E40.34884
G1 X16.315 Y31.731 E40.36637
G1 X16.755 Y31.434 E40.38385
G1 X17.236 Y31.206 E40.40137
G0 F2400 X17.097 Y31.66
G1 F600 X17.564 Y31.473 E40.41794
G1 X18.056 Y31.361 E40.43455
G1 X18.509 Y31.329 E40.44951
G1 X41.494 Y31.33 E41.20634
G1 X42.158 Y31.4 E41.22833
G1 X47.265 Y32.491 E41.40029
G1 X52.669 Y33.34 E41.58041
G1 X58.114 Y33.883 E41.76059
G1 X63.583 Y34.117 E41.94083
G1 X69.075 Y34.04 E42.12169
G1 X74.532 Y33.656 E42.30182
G1 X79.948 Y32.964 E42.4816
G1 X85.376 Y31.957 E42.66338
G1 X87.809 Y31.407 E42.74552
G1 X88.51 Y31.329 E42.76874
G1 X111.494 Y31.33 E43.52555
G1 X112.158 Y31.4 E43.54753
G1 X117.265 Y32.491 E43.71949
G1 X122.669 Y33.34 E43.89961
G1 X128.114 Y33.883 E44.07979
G1 X133.583 Y34.117 E44.26004
G1 X139.075 Y34.04 E44.44089
G1 X144.532 Y33.656 E44.62102
G1 X149.948 Y32.964 E44.80081
G1 X155.376 Y31.957 E44.98259
G1 X157.809 Y31.407 E45.06472
G1 X158.51 Y31.329 E45.08795
G1 X181.491 Y31.329 E45.84466
G1 X181.993 Y31.369 E45.86124
G1 X182.483 Y31.488 E45.87784
G1 X182.948 Y31.682 E45.89443
G1 X183.376 Y31.948 E45.91103
G1 X183.757 Y32.278 E45.92762
G1 X184.081 Y32.664 E45.94422
G1 X184.34 Y33.097 E45.96083
G1 X184.527 Y33.564 E45.97739
G1 X184.639 Y34.056 E45.99401
G1 X184.671 Y34.509 E46.00896
G1 X184.669 Y57.511 E46.76636
G1 X184.637 Y57.96 E46.78118
G1 X184.255 Y60.638 E46.87026
G1 X183.711 Y66.101 E47.05103
G1 X183.477 Y71.57 E47.23127
G1 X183.554 Y77.059 E47.41203
G1 X183.939 Y82.522 E47.59236
G1 X184.657 Y88.448 E47.78892
G1 X184.68 Y88.832 E47.80158
G1 X184.663 Y111.557 E48.54986
G1 X184.637 Y111.959 E48.56313
G1 X183.944 Y117.373 E48.74285
G1 X183.556 Y122.833 E48.92309
G1 X183.477 Y128.325 E49.10394
G1 X183.707 Y133.79 E49.28405
G1 X184.248 Y139.244 E49.46452
G1 X184.64 Y142.061 E49.55817
G1 X184.67 Y142.499 E49.57263
G1 X184.671 Y165.491 E50.3297
G1 X184.631 Y165.993 E50.34628
G1 X184.512 Y166.483 E50.36288
G1 X184.318 Y166.948 E50.37947
G1 X184.052 Y167.376 E50.39607
G1 X183.722 Y167.757 E50.41266
G1 X183.336 Y168.081 E50.42926
G1 X182.904 Y168.34 E50.44584
G1 X182.436 Y168.527 E50.46244
G1 X181.944 Y168.639 E50.47905
G1 X181.491 Y168.671 E50.49401
G1 X158.506 Y168.67 E51.25084
G1 X157.842 Y168.6 E51.27283
G1 X152.735 Y167.509 E51.44478
G1 X147.331 Y166.66 E51.62491
G1 X141.886 Y166.117 E51.80509
G1 X136.417 Y165.883 E51.98533
G1 X130.925 Y165.96 E52.16619
G1 X125.468 Y166.344 E52.34632
G1 X120.052 Y167.036 E52.5261
G1 X114.624 Y168.043 E52.70788
G1 X112.191 Y168.593 E52.79002
G1 X111.49 Y168.671 E52.81324
G1 X88.506 Y168.67 E53.57005
G1 X87.842 Y168.6 E53.59203
G1 X82.735 Y167.509 E53.76399
G1 X77.331 Y166.66 E53.94411
G1 X71.886 Y166.117 E54.12429
G1 X66.417 Y165.883 E54.30454
G1 X60.925 Y165.96 E54.48539
G1 X55.468 Y166.344 E54.66552
G1 X50.052 Y167.036 E54.84531
G1 X44.624 Y168.043 E55.02709
G1 X42.191 Y168.593 E55.10922
G1 X41.49 Y168.671 E55.13245
G1 X18.509 Y168.671 E55.88916
G1 X18.007 Y168.631 E55.90574
G1 X17.517 Y168.512 E55.92234
G1 X17.052 Y168.318 E55.93893
G1 X16.624 Y168.052 E55.95552
G1 X16.243 Y167.722 E55.97212
G1 X15.919 Y167.336 E55.98872
G1 X15.66 Y166.903 E56.00533
G1 X15.473 Y166.436 E56.02189
G1 X15.361 Y165.944 E56.03851
G1 X15.329 Y165.491 E56.05346
G1 X15.331 Y142.489 E56.81086
G1 X15.363 Y142.04 E56.82568
G1 X15.745 Y139.362 E56.91476
G1 X16.289 Y133.899 E57.09553
G1 X16.523 Y128.43 E57.27577
G1 X16.446 Y122.941 E57.45653
G1 X16.061 Y117.488 E57.63653
G1 X15.354 Y111.888 E57.82239
G1 X15.329 Y111.489 E57.83555
G1 X15.331 Y88.489 E58.59289
G1 X15.363 Y88.04 E58.60771
G1 X15.745 Y85.362 E58.69678
G1 X16.289 Y79.899 E58.87755
G1 X16.523 Y74.43 E59.0578
G1 X16.446 Y68.941 E59.23856
G1 X16.061 Y63.488 E59.41856
G1 X15.354 Y57.888 E59.60441
G1 X15.329 Y57.489 E59.61758
G1 X15.329 Y34.509 E60.37425
G1 X15.369 Y34.007 E60.39084
G1 X15.488 Y33.517 E60.40744
G1 X15.682 Y33.052 E60.42403
G1 X15.948 Y32.624 E60.44062
G1 X16.278 Y32.243 E60.45722
G1 X16.664 Y31.919 E60.47381
G1 X17.097 Y31.66 E60.49043
G1 F1800 E59.49043
G0 F2400 X17.835 Y36.554
G0 X20.554 Y36.554
G0 X38.74 Y54.74
;TYPE:WALL-INNER
G1 F1800 E60.49043
G1 F600 X21.26 Y54.74 E61.066
G1 X21.26 Y37.26 E61.64157
G1 X38.74 Y37.26 E62.21715
G1 X38.74 Y54.74 E62.79272
G0 F2400 X39.1 Y55.1
G1 F600 X20.9 Y55.1 E63.392
G1 X20.9 Y36.9 E63.99128
G1 X39.1 Y36.9 E64.59056
G1 X39.1 Y55.1 E65.18984
G0 F2400 X39.46 Y55.46
G1 F600 X20.54 Y55.46 E65.81283
G1 X20.54 Y36.54 E66.43582
G1 X39.46 Y36.54 E67.05881
G1 X39.46 Y55.46 E67.6818
G0 F2400 X39.82 Y55.82
;TYPE:WALL-OUTER
G1 F600 X20.18 Y55.82 E68.3285
G1 X20.18 Y36.18 E68.97519
G1 X39.82 Y36.18 E69.62189
G1 X39.82 Y55.82 E70.26859
G0 F2400 X39.62 Y55.82
G0 X39.39 Y55.39
G0 X38.39 Y54.39
;TYPE:SKIN
G1 F600 X21.61 Y54.39 E70.82111
G1 X21.61 Y37.61 E71.37364
G1 X38.39 Y37.61 E71.92616
G1 X38.39 Y54.39 E72.47868
G0 F2400 X37.77 Y37.77
G1 F600 X38.23 Y38.23 E72.5001
G0 F2400 X38.23 Y38.739
G1 F600 X37.26 Y37.77 E72.54525
G0 F2400 X36.751 Y37.77
G1 F600 X38.23 Y39.248 E72.6141
G0 F2400 X38.23 Y39.757
G1 F600 X36.242 Y37.77 E72.70665
G0 F2400 X35.733 Y37.77
G1 F600 X38.23 Y40.266 E72.8229
G0 F2400 X38.23 Y40.776
G1 F600 X35.224 Y37.77 E72.96288
G0 F2400 X34.715 Y37.77
G1 F600 X38.23 Y41.285 E73.12656
G0 F2400 X38.23 Y41.794
G1 F600 X34.206 Y37.77 E73.31395
G0 F2400 X33.697 Y37.77
G1 F600 X38.23 Y42.303 E73.52503
G0 F2400 X38.23 Y42.812
G1 F600 X33.188 Y37.77 E73.75982
G0 F2400 X32.678 Y37.77
G1 F600 X38.23 Y43.321 E74.01834
G0 F2400 X38.23 Y43.83
G1 F600 X32.169 Y37.77 E74.30055
G0 F2400 X31.66 Y37.77
G1 F600 X38.23 Y44.339 E74.60647
G0 F2400 X38.23 Y44.848
G1 F600 X31.151 Y37.77 E74.93609
G0 F2400 X30.642 Y37.77
G1 F600 X38.23 Y45.358 E75.28944
G0 F2400 X38.23 Y45.867
G1 F600 X30.133 Y37.77 E75.66649
G0 F2400 X29.624 Y37.77
G1 F600 X38.23 Y46.376 E76.06724
G0 F2400 X38.23 Y46.885
G1 F600 X29.115 Y37.77 E76.4917
G0 F2400 X28.606 Y37.77
G1 F600 X38.23 Y47.394 E76.93985
G0 F2400 X38.23 Y47.903
G1 F600 X28.096 Y37.77 E77.41174
G0 F2400 X27.587 Y37.77
G1 F600 X38.23 Y48.412 E77.90732
G0 F2400 X38.23 Y48.921
G1 F600 X27.078 Y37.77 E78.42661
G0 F2400 X26.569 Y37.77
G1 F600 X38.23 Y49.431 E78.96962
G0 F2400 X38.23 Y49.94
G1 F600 X26.06 Y37.77 E79.53634
G0 F2400 X25.551 Y37.77
G1 F600 X38.23 Y50.449 E80.12675
G0 F2400 X38.23 Y50.958
G1 F600 X25.042 Y37.77 E80.74087
G0 F2400 X24.533 Y37.77
G1 F600 X38.23 Y51.467 E81.37869
G0 F2400 X38.23 Y51.976
G1 F600 X24.023 Y37.77 E82.04024
G0 F2400 X23.514 Y37.77
G1 F600 X38.23 Y52.485 E82.72549
G0 F2400 X38.23 Y52.994
G1 F600 X23.005 Y37.77 E83.43445
G0 F2400 X22.496 Y37.77
G1 F600 X38.23 Y53.503 E84.1671
G0 F2400 X38.23 Y54.013
G1 F600 X21.987 Y37.77 E84.92348
G0 F2400 X21.77 Y38.062
G1 F600 X37.937 Y54.229 E85.67632
G0 F2400 X37.428 Y54.229
G1 F600 X21.77 Y38.571 E86.40546
G0 F2400 X21.77 Y39.08
G1 F600 X36.919 Y54.229 E87.1109
G0 F2400 X36.41 Y54.229
G1 F600 X21.77 Y39.589 E87.79263
G0 F2400 X21.77 Y40.098
G1 F600 X35.901 Y54.229 E88.45067
G0 F2400 X35.392 Y54.229
G1 F600 X21.77 Y40.607 E89.085
G0 F2400 X21.77 Y41.116
G1 F600 X34.882 Y54.229 E89.6956
G0 F2400 X34.373 Y54.229
G1 F600 X21.77 Y41.625 E90.2825
G0 F2400 X21.77 Y42.135
G1 F600 X33.864 Y54.229 E90.84568
G0 F2400 X33.355 Y54.229
G1 F600 X21.77 Y42.644 E91.38515
G0 F2400 X21.77 Y43.153
G1 F600 X32.846 Y54.229 E91.90092
G0 F2400 X32.337 Y54.229
G1 F600 X21.77 Y43.662 E92.39299
G0 F2400 X21.77 Y44.171
G1 F600 X31.828 Y54.229 E92.86136
G0 F2400 X31.319 Y54.229
G1 F600 X21.77 Y44.68 E93.30602
G0 F2400 X21.77 Y45.189
G1 F600 X30.81 Y54.229 E93.72698
G0 F2400 X30.3 Y54.229
G1 F600 X21.77 Y45.698 E94.12422
G0 F2400 X21.77 Y46.208
G1 F600 X29.791 Y54.229 E94.49773
G0 F2400 X29.282 Y54.229
G1 F600 X21.77 Y46.717 E94.84754
G0 F2400 X21.77 Y47.226
